X:62
T:Dark Island
R:Waltz 32
M:3/4
L:1/8
Q:1/8=180
K:Em
E |"Am" A3 E A2 | "G"G3 A G2 | "Am"E3 D E2 | "G"D4 GA |
"G"B3 A G2 | "G"B d3 D2 | "G"B3 d B2 | "Am"A4 DE |
"Am"A3 E A2 | "G"G3 A G2 | "Am"E3 D E2 | "G"D4 GA |
"G"B3 DdB | "Am"A3 DBA | "G"G6 | "G"G4 |]
Bc | "G"d3 D D2 | "G"B3 A G2 | "Am"E C3 E2 | "G"D4 GA |
"G"B3 A G2 | "G"B d3 D2 | "G"B3 d B2 | "Am"A4 DE |
"Am"A3 E A2 | "G"G3 A G2 | "Am"E3 D E2 | "G"D4 GA |
"G"B3 DdB | "Am"A3 DBA | "G"G6 | G4 |]

